X:1280
T: John Kelly's Favorite
T: Rogha She\'ain U\'i Cheallaigh
S: B.Breathnach:"Ceol Rince na hEireann" IV/163
Z: B.Black
L: 1/8
M: 4/4
R: reel
K: G
A|B2 cA dcAF|G2 AG =FEFG|(3Bcd BG ABcd|e2 =fc AGGA|
dcAF G2 AG|=FEFG FDCF|(3Bcd A=F GFDA|=fefc AGG :|
A|dgge =f3g|agfd cABG|GAfg fgag|fdfa gagf|
defg af bg|=fefc ABcA|G2 G=F Addd|=fefc AGG :|
